img/social/slack.svg

<svg width="31" height="31" viewBox="0 0 31 31" fill="none" xmlns="http://www.w3.org/2000/svg">
<g clip-path="url(#clip0)">
<path d="M11.4223 16.3408C9.62431 16.3408 8.16602 17.7991 8.16602 19.5971V27.7424C8.16602 29.5404 9.62431 30.9986 11.4223 30.9986C13.2203 30.9986 14.6786 29.5404 14.6786 27.7424V19.5971C14.6773 17.7991 13.219 16.3408 11.4223 16.3408Z" fill="#E91E63"/>
<path d="M0.0244141 19.5972C0.0244141 21.3965 1.484 22.8561 3.28329 22.8561C5.08258 22.8561 6.54217 21.3965 6.54217 19.5972V16.3384H3.28587C3.28458 16.3384 3.28458 16.3384 3.28329 16.3384C1.484 16.3384 0.0244141 17.798 0.0244141 19.5972V19.5972Z" fill="#E91E63"/>
<path d="M11.4268 -0.00146484C11.4255 -0.00146484 11.4242 -0.00146484 11.4229 -0.00146484C9.62364 -0.00146484 8.16406 1.45812 8.16406 3.25741C8.16406 5.0567 9.62364 6.51629 11.4229 6.51629H14.6792V3.25741C14.6792 3.25612 14.6792 3.25354 14.6792 3.25095C14.6779 1.45424 13.2222 -0.00146484 11.4268 -0.00146484V-0.00146484Z" fill="#00BCD4"/>
<path d="M3.26083 14.6862H11.4216C13.2209 14.6862 14.6805 13.2266 14.6805 11.4273C14.6805 9.62804 13.2209 8.16846 11.4216 8.16846H3.26083C1.46154 8.16846 0.00195312 9.62804 0.00195312 11.4273C0.00195312 13.2266 1.46154 14.6862 3.26083 14.6862V14.6862Z" fill="#00BCD4"/>
<path d="M27.7153 8.16724C25.9186 8.16724 24.4629 9.62294 24.4629 11.4197V11.4261V14.685H27.7192C29.5185 14.685 30.9781 13.2254 30.9781 11.4261C30.9781 9.62682 29.5185 8.16724 27.7192 8.16724C27.7179 8.16724 27.7166 8.16724 27.7153 8.16724V8.16724Z" fill="#4CAF50"/>
<path d="M16.3281 3.25776V11.4275C16.3281 13.2255 17.7864 14.6838 19.5844 14.6838C21.3824 14.6838 22.8407 13.2255 22.8407 11.4275V3.25776C22.8407 1.45976 21.3824 0.00146484 19.5844 0.00146484C17.7864 0.00146484 16.3281 1.45976 16.3281 3.25776V3.25776Z" fill="#4CAF50"/>
<path d="M22.8387 27.7399C22.8387 25.9419 21.3805 24.4836 19.5825 24.4836H16.3262V27.7425C16.3275 29.5392 17.7845 30.9962 19.5825 30.9962C21.3805 30.9962 22.8387 29.5379 22.8387 27.7399Z" fill="#FF9800"/>
<path d="M27.7439 16.3384H19.5831C17.7838 16.3384 16.3242 17.798 16.3242 19.5972C16.3242 21.3965 17.7838 22.8561 19.5831 22.8561H27.7439C29.5432 22.8561 31.0027 21.3965 31.0027 19.5972C31.0027 17.798 29.5432 16.3384 27.7439 16.3384V16.3384Z" fill="#FF9800"/>
</g>
<defs>
<clipPath id="clip0">
<rect width="31" height="31" fill="white"/>
</clipPath>
</defs>
</svg>

<svg width="31" height="31" fill="none" xmlns="http://www.w3.org/2000/svg"><g clip-path="url(#clip0)"><path d="M11.422 16.34a3.257 3.257 0 00-3.256 3.257v8.145a3.257 3.257 0 006.513 0v-8.145a3.258 3.258 0 00-3.257-3.256zM.024 19.597a3.26 3.26 0 006.518 0v-3.259H3.283a3.26 3.26 0 00-3.259 3.26z" fill="#E91E63"/><path d="M11.427-.001h-.004a3.26 3.26 0 000 6.517h3.256V3.257v-.006a3.253 3.253 0 00-3.252-3.252zM3.26 14.686h8.162a3.26 3.26 0 000-6.518H3.26a3.26 3.26 0 000 6.518z" fill="#00BCD4"/><path d="M27.715 8.167a3.252 3.252 0 00-3.252 3.253V14.685h3.256a3.26 3.26 0 000-6.518h-.004zM16.328 3.258v8.17a3.257 3.257 0 006.513 0v-8.17a3.257 3.257 0 00-6.513 0z" fill="#4CAF50"/><path d="M22.839 27.74a3.257 3.257 0 00-3.256-3.256h-3.257v3.258a3.256 3.256 0 006.513-.002zM27.744 16.338h-8.16a3.26 3.26 0 000 6.518h8.16a3.26 3.26 0 000-6.518z" fill="#FF9800"/></g><defs><clipPath id="clip0"><path fill="#fff" d="M0 0h31v31H0z"/></clipPath></defs></svg>
